X:1
T:Title
L:1/8
Q:1/4=100
M:4/4
K:Ab
V:1 treble nm="Grand Piano"
V:1
 C2 FG A2 GF | G4 C4 | G2 GA B2 AG | B4 A4 | c2 BA c2 BA | dcBA G4 | B2 AG B2 AG | cBAG F4 | %8
w: ????~???? * * * * *||||||||
 c2 cd cBAG | AGF=E F4 |] %10
w: ||

